X: 921
T: Cambdelmore -- Strathspey
R: strathspey
B: Robert Bremner "A Collection of Scots Reels or Country Dances" 1757 p.92 #1
S: http://imslp.org/wiki/A_Collection_of_Scots_Reels_or_Country_Dances_(Bremner,_Robert)
Z: 2013 John Chambers <jc:trillian.mit.edu>
N: The 2nd strain has initial repeat but no final repeat; not fixed.
M: C
L: 1/8
K: G
% - - - - - - - - - - - - - - - - - - - - - - - - -
V: 1
d |\
TB>ABd e/e/e eg | dGTBA G2-Gd |\
TB>ABd e/e/e ea | g>eg>B A2A :|
|: (g/a/ |\
b)>ga>e gdeg | dG(TBA) G2 G(g/a/ |\
b)>ga>e g>aba | g>eg>B A2 A(g/a/ |
b)>ga>e g>deg | dGTBA G2Gd |\
TB>ABd e/e/e ea | g>eg>B A2A |]
% - - - - - - - - - - - - - - - - - - - - - - - - -
V: 2 clef=bass middle=d
z |\
g2g2 g2g2 | g2g2 g2g2 |\
g2g2 a2a2 | e2e2 A2A :|\
|: z |\
g2g2 g2g2 |
g2g2 g2g2 |\
g2g2 g2g2 | e2e2 A2A2 |\
g2g2 g2g2 | g2g2 g2g2 |\
g2g2 g2g2 | e2e2 A2A |]
% - - - - - - - - - - - - - - - - - - - - - - - - -

%%sep 1 1 500
%%sep 1 1 500
